X: 28
T: Star Of Munster, The
Z: Edgar Bolton
S: https://thesession.org/tunes/197#setting51694
R: reel
M: 4/4
L: 1/8
K: Ador
"Am"[c2A2]Ac "G"[B2G2] GB| "Am"GA (3AAA "G"GED2|"Am"[A,E]A (3AAA ABcd|"Am"[e3c3] e "G"dBGB|
"Am"BccA "G"[B2G2] AG |"Am" GA (3AAA "G"GED2|"Am"[A,E]A (3AAA ABcd|"Am"[c3A3] B [A4E4]||
"Am" cBAc "G"[B2G2] GB| "Am"GA (3AAA "G"GED2|"Am"[A,E]A (3AAA ABcd|"Am"eage "G"dBGB|
"Am"BccA "G"[B2G2] (3A_AG |"Am" GA (3AAA "G"GED2|"Am"[A,E]A (3AAA ABcd|"Am"eaag [a4e4] ||
"Am"eaab ae (3eee |"Am" [a3e3] b [ea]e (3eee |"G"dgga gd (3ddd |"G"[g3B3] a gd (3ddd|
"Am"eaab ae (3eee |"Am" [a3e3] b [ea]e (3eee| "G"gd (3ddd "Am" ae (3eee |"G"be "Am"ae "G"ged2||
"Am"eaab ae (3eee |"Am" aebe agef |"G"dgga gd (3ddd |"G"gaba gede |
"Am"eaab ae (3eee |"Am" [a3e3] b [ea]e (3eee| "G"gd (3ddd "Am" ae (3eee |"G"(3bae "Am"(3age "G"ged2||

